X:1
T:Il en faut peu pour tre heureux...
C:la chanson de Baloo dans le "Livre de la Jungle", fichier abc : Bernard Loffet
L:1/8
Q:360
K:C
M:4/4
 z2 G2 A2 c2 | [z2C,,2] [e2C,2] C,,2 [d2C,2] | [e2C,,2] [dC,]c C,,2 [c2C,2] | [d2F,,2] [c2F,2] [d2F,,2] [c2F,2] | \
 [d2F,,2] [cF,]A F,,2 [G2F,2] | [c2C,,2] C,G [c2C,,2] [e2C,2] | [a2A,,2] [g2E,2] [f2A,,2] [e2A,2] | \
 [d2D,,2] D,2 D,,2 D,2 | G,,2 [g2G,2] G,,2 G,2 | [z2C,,2] [a2A,2] A,,2 [g2A,2] | [a2A,,2] [gE,]e A,,2 [c2A,2] | \
 [d2F,,2] [c2F,2] [d2F,,2] [c2F,2] | [A2F,,2] [cF,]c F,,2 [d2F,2] | [e2C,,2] [g2C,2] [e2A,,2] [g2A,2] | \
 [e2D,,2] [cD,]A G,,2 [G2G,2] | [c2C,,2] C,2 F,,2 F,2 | C,,8 | \
W:Created with TablEdit http://www.tabledit.com/ by Bernard Loffet
